X:736
T:Mrs. Tulloch, Earnhill
R:Reel
B:The Athole Collection
M:C|
L:1/8
K:B_
F|B2 FB DB,B,D|ECcB AFGA|BFGE DB,DF|BdcA B2B:|
e|dffg bgfd|ecdB Acce|dffg bgfd|ecfF B2 Be|dffg bagf|ecdB Accd|
BGFE DEFD|BdcA B2B||

